project/arcana/img/vector/social-gp.svg

<svg xmlns="http://www.w3.org/2000/svg" viewBox="0 0 512 512"><path d="M179.7 237.6v46.6h77c-3.1 20-23.3 58.7-77 58.7-46.3 0-84.1-38.5-84.1-85.9 0-47.4 37.8-85.9 84.1-85.9 26.4 0 44 11.3 54.1 21l36.8-35.5C247 134.4 216.4 121 179.7 121 104.7 121 44 181.8 44 257s60.7 136 135.7 136C258 393 310 337.8 310 260.1c0-8.9-1-15.7-2.1-22.5H179.7zm288.3-.9h-38.7V198h-38.6v38.7H352v38.6h38.7V314h38.6v-38.7H468"/></svg>

<svg xmlns="http://www.w3.org/2000/svg" xmlns:xlink="http://www.w3.org/1999/xlink" viewBox="0 0 512 512">
  <path d="M179.7 237.6L179.7 284.2 256.7 284.2C253.6 304.2 233.4 342.9 179.7 342.9 133.4 342.9 95.6 304.4 95.6 257 95.6 209.6 133.4 171.1 179.7 171.1 206.1 171.1 223.7 182.4 233.8 192.1L270.6 156.6C247 134.4 216.4 121 179.7 121 104.7 121 44 181.8 44 257 44 332.2 104.7 393 179.7 393 258 393 310 337.8 310 260.1 310 251.2 309 244.4 307.9 237.6L179.7 237.6 179.7 237.6ZM468 236.7L429.3 236.7 429.3 198 390.7 198 390.7 236.7 352 236.7 352 275.3 390.7 275.3 390.7 314 429.3 314 429.3 275.3 468 275.3"/>
</svg>
